documentation/public/assets/images/toast.svg

<svg width="355" height="48" viewBox="0 0 355 48" fill="none" xmlns="http://www.w3.org/2000/svg">
<rect width="355" height="48" rx="4" fill="#0F67F5"/>
<path d="M23.6699 26.2899C23.3199 26.2899 23.0499 26.0099 23.0499 25.6699V23.6699C23.0499 23.3199 23.3299 23.0499 23.6699 23.0499C24.0099 23.0499 24.2899 23.3299 24.2899 23.6699V25.6699C24.2899 26.0199 24.0099 26.2899 23.6699 26.2899Z" fill="white"/>
<path d="M23.6699 22.2899C23.5799 22.2899 23.4999 22.2699 23.4299 22.2399C23.3499 22.2099 23.2799 22.1699 23.2199 22.1099C23.1699 22.0499 23.1199 21.9799 23.0899 21.9099C23.0599 21.8299 23.0399 21.7499 23.0399 21.6699C23.0399 21.5899 23.0599 21.4999 23.0899 21.4299C23.1199 21.3499 23.1699 21.2799 23.2199 21.2299C23.2799 21.1699 23.3499 21.1199 23.4299 21.0899C23.5799 21.0299 23.7499 21.0299 23.9099 21.0899C23.9799 21.1199 24.0499 21.1699 24.1099 21.2299C24.1699 21.2799 24.2099 21.3499 24.2399 21.4299C24.2799 21.4999 24.2899 21.5899 24.2899 21.6699C24.2899 21.8299 24.2299 21.9899 24.1099 22.1099C23.9899 22.2199 23.8299 22.2899 23.6699 22.2899Z" fill="white"/>
<path d="M23.6699 30.9599C19.6499 30.9599 16.3799 27.6899 16.3799 23.6699C16.3799 19.6499 19.6499 16.3799 23.6699 16.3799C27.6899 16.3799 30.9599 19.6499 30.9599 23.6699C30.9599 27.6899 27.6899 30.9599 23.6699 30.9599ZM23.6699 17.6199C20.3299 17.6199 17.6199 20.3399 17.6199 23.6699C17.6199 26.9999 20.3299 29.7099 23.6599 29.7099C26.9899 29.7099 29.6999 26.9999 29.6999 23.6699C29.6999 20.3399 26.9999 17.6199 23.6699 17.6199Z" fill="white"/>
<path d="M42.8182 18.3636V30H41.4091V18.3636H42.8182ZM46.8026 24.75V30H45.4616V21.2727H46.7571V22.6364H46.8707C47.0753 22.1932 47.3859 21.8371 47.8026 21.5682C48.2192 21.2955 48.7571 21.1591 49.4162 21.1591C50.0071 21.1591 50.5241 21.2803 50.9673 21.5227C51.4105 21.7614 51.7552 22.125 52.0014 22.6136C52.2476 23.0985 52.3707 23.7121 52.3707 24.4545V30H51.0298V24.5455C51.0298 23.8598 50.8518 23.3258 50.4957 22.9432C50.1397 22.5568 49.651 22.3636 49.0298 22.3636C48.6018 22.3636 48.2192 22.4564 47.8821 22.642C47.5488 22.8277 47.2855 23.0985 47.0923 23.4545C46.8991 23.8106 46.8026 24.2424 46.8026 24.75ZM58.7074 21.2727V22.4091H54.0028V21.2727H58.7074ZM55.4119 30V20.0682C55.4119 19.5682 55.5294 19.1515 55.7642 18.8182C55.9991 18.4848 56.304 18.2348 56.679 18.0682C57.054 17.9015 57.4498 17.8182 57.8665 17.8182C58.196 17.8182 58.465 17.8447 58.6733 17.8977C58.8816 17.9508 59.0369 18 59.1392 18.0455L58.7528 19.2045C58.6847 19.1818 58.59 19.1534 58.4688 19.1193C58.3513 19.0852 58.196 19.0682 58.0028 19.0682C57.5597 19.0682 57.2396 19.1799 57.0426 19.4034C56.8494 19.6269 56.7528 19.9545 56.7528 20.3864V30H55.4119ZM63.7727 30.1818C62.9848 30.1818 62.2936 29.9943 61.6989 29.6193C61.108 29.2443 60.6458 28.7197 60.3125 28.0455C59.983 27.3712 59.8182 26.5833 59.8182 25.6818C59.8182 24.7727 59.983 23.9792 60.3125 23.3011C60.6458 22.6231 61.108 22.0966 61.6989 21.7216C62.2936 21.3466 62.9848 21.1591 63.7727 21.1591C64.5606 21.1591 65.25 21.3466 65.8409 21.7216C66.4356 22.0966 66.8977 22.6231 67.2273 23.3011C67.5606 23.9792 67.7273 24.7727 67.7273 25.6818C67.7273 26.5833 67.5606 27.3712 67.2273 28.0455C66.8977 28.7197 66.4356 29.2443 65.8409 29.6193C65.25 29.9943 64.5606 30.1818 63.7727 30.1818ZM63.7727 28.9773C64.3712 28.9773 64.8636 28.8239 65.25 28.517C65.6364 28.2102 65.9223 27.8068 66.108 27.3068C66.2936 26.8068 66.3864 26.2652 66.3864 25.6818C66.3864 25.0985 66.2936 24.5549 66.108 24.0511C65.9223 23.5473 65.6364 23.1402 65.25 22.8295C64.8636 22.5189 64.3712 22.3636 63.7727 22.3636C63.1742 22.3636 62.6818 22.5189 62.2955 22.8295C61.9091 23.1402 61.6231 23.5473 61.4375 24.0511C61.2519 24.5549 61.1591 25.0985 61.1591 25.6818C61.1591 26.2652 61.2519 26.8068 61.4375 27.3068C61.6231 27.8068 61.9091 28.2102 62.2955 28.517C62.6818 28.8239 63.1742 28.9773 63.7727 28.9773ZM78.0696 21.2727V22.4091H73.5469V21.2727H78.0696ZM74.8651 19.1818H76.206V27.5C76.206 27.8788 76.2609 28.1629 76.3707 28.3523C76.4844 28.5379 76.6283 28.6629 76.8026 28.7273C76.9806 28.7879 77.1681 28.8182 77.3651 28.8182C77.5128 28.8182 77.634 28.8106 77.7287 28.7955C77.8234 28.7765 77.8991 28.7614 77.956 28.75L78.2287 29.9545C78.1378 29.9886 78.0109 30.0227 77.848 30.0568C77.6851 30.0947 77.4787 30.1136 77.2287 30.1136C76.8499 30.1136 76.4787 30.0322 76.1151 29.8693C75.7552 29.7064 75.456 29.4583 75.2173 29.125C74.9825 28.7917 74.8651 28.3712 74.8651 27.8636V19.1818ZM83.5384 30.1818C82.7505 30.1818 82.0592 29.9943 81.4645 29.6193C80.8736 29.2443 80.4115 28.7197 80.0781 28.0455C79.7486 27.3712 79.5838 26.5833 79.5838 25.6818C79.5838 24.7727 79.7486 23.9792 80.0781 23.3011C80.4115 22.6231 80.8736 22.0966 81.4645 21.7216C82.0592 21.3466 82.7505 21.1591 83.5384 21.1591C84.3262 21.1591 85.0156 21.3466 85.6065 21.7216C86.2012 22.0966 86.6634 22.6231 86.9929 23.3011C87.3262 23.9792 87.4929 24.7727 87.4929 25.6818C87.4929 26.5833 87.3262 27.3712 86.9929 28.0455C86.6634 28.7197 86.2012 29.2443 85.6065 29.6193C85.0156 29.9943 84.3262 30.1818 83.5384 30.1818ZM83.5384 28.9773C84.1368 28.9773 84.6293 28.8239 85.0156 28.517C85.402 28.2102 85.688 27.8068 85.8736 27.3068C86.0592 26.8068 86.152 26.2652 86.152 25.6818C86.152 25.0985 86.0592 24.5549 85.8736 24.0511C85.688 23.5473 85.402 23.1402 85.0156 22.8295C84.6293 22.5189 84.1368 22.3636 83.5384 22.3636C82.9399 22.3636 82.4474 22.5189 82.0611 22.8295C81.6747 23.1402 81.3887 23.5473 81.2031 24.0511C81.0175 24.5549 80.9247 25.0985 80.9247 25.6818C80.9247 26.2652 81.0175 26.8068 81.2031 27.3068C81.3887 27.8068 81.6747 28.2102 82.0611 28.517C82.4474 28.8239 82.9399 28.9773 83.5384 28.9773ZM92.108 30.2045C91.5549 30.2045 91.053 30.1004 90.6023 29.892C90.1515 29.6799 89.7936 29.375 89.5284 28.9773C89.2633 28.5758 89.1307 28.0909 89.1307 27.5227C89.1307 27.0227 89.2292 26.6174 89.4261 26.3068C89.6231 25.9924 89.8864 25.7462 90.2159 25.5682C90.5455 25.3902 90.9091 25.2576 91.3068 25.1705C91.7083 25.0795 92.1117 25.0076 92.517 24.9545C93.0473 24.8864 93.4773 24.8352 93.8068 24.8011C94.1402 24.7633 94.3826 24.7008 94.5341 24.6136C94.6894 24.5265 94.767 24.375 94.767 24.1591V24.1136C94.767 23.553 94.6136 23.1174 94.3068 22.8068C94.0038 22.4962 93.5436 22.3409 92.9261 22.3409C92.286 22.3409 91.7841 22.4811 91.4205 22.7614C91.0568 23.0417 90.8011 23.3409 90.6534 23.6591L89.3807 23.2045C89.608 22.6742 89.911 22.2614 90.2898 21.9659C90.6723 21.6667 91.089 21.4583 91.5398 21.3409C91.9943 21.2197 92.4413 21.1591 92.8807 21.1591C93.161 21.1591 93.483 21.1932 93.8466 21.2614C94.214 21.3258 94.5682 21.4602 94.9091 21.6648C95.2538 21.8693 95.5398 22.178 95.767 22.5909C95.9943 23.0038 96.108 23.5568 96.108 24.25V30H94.767V28.8182H94.6989C94.608 29.0076 94.4564 29.2102 94.2443 29.4261C94.0322 29.642 93.75 29.8258 93.3977 29.9773C93.0455 30.1288 92.6155 30.2045 92.108 30.2045ZM92.3125 29C92.8428 29 93.2898 28.8958 93.6534 28.6875C94.0208 28.4792 94.2973 28.2102 94.483 27.8807C94.6723 27.5511 94.767 27.2045 94.767 26.8409V25.6136C94.7102 25.6818 94.5852 25.7443 94.392 25.8011C94.2027 25.8542 93.983 25.9015 93.733 25.9432C93.4867 25.9811 93.2462 26.0152 93.0114 26.0455C92.7803 26.072 92.5928 26.0947 92.4489 26.1136C92.1004 26.1591 91.7746 26.233 91.4716 26.3352C91.1723 26.4337 90.9299 26.5833 90.7443 26.7841C90.5625 26.9811 90.4716 27.25 90.4716 27.5909C90.4716 28.0568 90.6439 28.4091 90.9886 28.6477C91.3371 28.8826 91.7784 29 92.3125 29ZM104.737 23.2273L103.533 23.5682C103.457 23.3674 103.345 23.1723 103.197 22.983C103.054 22.7898 102.857 22.6307 102.607 22.5057C102.357 22.3807 102.036 22.3182 101.646 22.3182C101.112 22.3182 100.667 22.4413 100.311 22.6875C99.9588 22.9299 99.7827 23.2386 99.7827 23.6136C99.7827 23.947 99.9039 24.2102 100.146 24.4034C100.389 24.5966 100.768 24.7576 101.283 24.8864L102.578 25.2045C103.358 25.3939 103.94 25.6837 104.322 26.0739C104.705 26.4602 104.896 26.9583 104.896 27.5682C104.896 28.0682 104.752 28.5152 104.464 28.9091C104.18 29.303 103.783 29.6136 103.271 29.8409C102.76 30.0682 102.165 30.1818 101.487 30.1818C100.597 30.1818 99.8603 29.9886 99.277 29.6023C98.6937 29.2159 98.3243 28.6515 98.169 27.9091L99.4418 27.5909C99.563 28.0606 99.7921 28.4129 100.129 28.6477C100.47 28.8826 100.915 29 101.464 29C102.089 29 102.586 28.8674 102.953 28.6023C103.324 28.3333 103.51 28.0114 103.51 27.6364C103.51 27.3333 103.404 27.0795 103.192 26.875C102.98 26.6667 102.654 26.5114 102.214 26.4091L100.76 26.0682C99.9607 25.8788 99.3736 25.5852 98.9986 25.1875C98.6274 24.786 98.4418 24.2841 98.4418 23.6818C98.4418 23.1894 98.58 22.7538 98.8565 22.375C99.1368 21.9962 99.5175 21.6989 99.9986 21.483C100.483 21.267 101.033 21.1591 101.646 21.1591C102.51 21.1591 103.188 21.3485 103.68 21.7273C104.177 22.1061 104.529 22.6061 104.737 23.2273ZM110.71 21.2727V22.4091H106.188V21.2727H110.71ZM107.506 19.1818H108.847V27.5C108.847 27.8788 108.902 28.1629 109.011 28.3523C109.125 28.5379 109.269 28.6629 109.443 28.7273C109.621 28.7879 109.809 28.8182 110.006 28.8182C110.153 28.8182 110.275 28.8106 110.369 28.7955C110.464 28.7765 110.54 28.7614 110.597 28.75L110.869 29.9545C110.778 29.9886 110.652 30.0227 110.489 30.0568C110.326 30.0947 110.119 30.1136 109.869 30.1136C109.491 30.1136 109.119 30.0322 108.756 29.8693C108.396 29.7064 108.097 29.4583 107.858 29.125C107.623 28.7917 107.506 28.3712 107.506 27.8636V19.1818Z" fill="white"/>
<path d="M334.54 28.1696C334.38 28.1696 334.22 28.1096 334.1 27.9896L330.77 24.6596L327.44 27.9896C327.2 28.2296 326.8 28.2296 326.56 27.9896C326.32 27.7496 326.32 27.3496 326.56 27.1096L329.89 23.7796L326.56 20.4496C326.32 20.2096 326.32 19.8096 326.56 19.5696C326.8 19.3296 327.2 19.3296 327.44 19.5696L330.77 22.8996L334.1 19.5696C334.34 19.3296 334.74 19.3296 334.98 19.5696C335.22 19.8096 335.22 20.2096 334.98 20.4496L331.65 23.7796L334.98 27.1096C335.22 27.3496 335.22 27.7496 334.98 27.9896C334.86 28.1096 334.7 28.1696 334.54 28.1696Z" fill="white"/>
</svg>

<svg width="355" height="48" fill="none" xmlns="http://www.w3.org/2000/svg"><rect width="355" height="48" rx="4" fill="#0F67F5"/><path d="M23.67 26.29a.62.62 0 0 1-.62-.62v-2c0-.35.28-.62.62-.62.34 0 .62.28.62.62v2c0 .35-.28.62-.62.62Zm0-4a.6.6 0 0 1-.24-.05.57.57 0 0 1-.21-.13.86.86 0 0 1-.13-.2.69.69 0 0 1-.05-.24.64.64 0 0 1 .39-.58.66.66 0 0 1 .48 0c.07.03.14.08.2.14.06.05.1.12.13.2a.5.5 0 0 1 .05.24c0 .16-.06.32-.18.44a.67.67 0 0 1-.44.18Z" fill="#fff"/><path d="M23.67 30.96a7.3 7.3 0 1 1 .02-14.6 7.3 7.3 0 0 1-.02 14.6Zm0-13.34a6.05 6.05 0 1 0 0 12.09 6.05 6.05 0 0 0 0-12.09Zm19.15.74V30H41.4V18.36h1.4Zm3.98 6.39V30h-1.34v-8.73h1.3v1.37h.11c.2-.45.52-.8.93-1.07.42-.27.96-.41 1.62-.41.59 0 1.1.12 1.55.36.44.24.79.6 1.03 1.1.25.48.37 1.1.37 1.83V30h-1.34v-5.45c0-.69-.18-1.22-.53-1.6a1.9 1.9 0 0 0-1.47-.59c-.43 0-.81.1-1.15.28a2 2 0 0 0-.79.81c-.2.36-.29.8-.29 1.3Zm11.9-3.48v1.14H54v-1.14h4.7ZM55.42 30v-9.93c0-.5.12-.92.35-1.25.24-.34.54-.59.92-.75a3.36 3.36 0 0 1 2.46-.02l-.39 1.15a6.63 6.63 0 0 0-.28-.08 1.72 1.72 0 0 0-.47-.05c-.44 0-.76.11-.96.33-.2.23-.29.55-.29.99V30h-1.34Zm8.36.18a3.8 3.8 0 0 1-2.07-.56c-.6-.38-1.05-.9-1.39-1.57a5.32 5.32 0 0 1-.5-2.37c0-.9.17-1.7.5-2.38.34-.68.8-1.2 1.39-1.58a3.8 3.8 0 0 1 2.07-.56c.8 0 1.48.19 2.07.56.6.38 1.06.9 1.39 1.58.33.68.5 1.47.5 2.38 0 .9-.17 1.7-.5 2.37a3.8 3.8 0 0 1-1.39 1.57c-.59.37-1.28.56-2.07.56Zm0-1.2c.6 0 1.1-.16 1.48-.46.39-.31.67-.71.86-1.21a4.77 4.77 0 0 0 0-3.26c-.19-.5-.47-.91-.86-1.22a2.28 2.28 0 0 0-1.48-.47c-.6 0-1.09.16-1.47.47-.4.31-.68.72-.86 1.22a4.77 4.77 0 0 0 0 3.26c.18.5.47.9.86 1.2.38.31.87.47 1.47.47Zm14.3-7.7v1.13h-4.52v-1.14h4.52Zm-3.2-2.1h1.34v8.32c0 .38.05.66.16.85.11.19.26.31.43.38.18.06.37.09.57.09.14 0 .26 0 .36-.02l.23-.05.27 1.2a2.73 2.73 0 0 1-1 .16 2.7 2.7 0 0 1-1.11-.24 2.21 2.21 0 0 1-.9-.75 2.14 2.14 0 0 1-.35-1.26v-8.68Zm8.67 11a3.8 3.8 0 0 1-2.08-.56 3.84 3.84 0 0 1-1.38-1.57 5.32 5.32 0 0 1-.5-2.37c0-.9.17-1.7.5-2.38.33-.68.8-1.2 1.38-1.58a3.8 3.8 0 0 1 2.08-.56c.79 0 1.48.19 2.07.56.6.38 1.05.9 1.38 1.58.34.68.5 1.47.5 2.38 0 .9-.16 1.7-.5 2.37-.33.67-.79 1.2-1.38 1.57-.6.37-1.28.56-2.07.56Zm0-1.2c.6 0 1.09-.16 1.48-.46.38-.31.67-.71.85-1.21a4.8 4.8 0 0 0 0-3.26c-.18-.5-.47-.91-.85-1.22a2.28 2.28 0 0 0-1.48-.47c-.6 0-1.1.16-1.48.47-.39.31-.67.72-.86 1.22a4.8 4.8 0 0 0 0 3.26c.19.5.47.9.86 1.2.39.31.88.47 1.48.47Zm8.57 1.22c-.56 0-1.06-.1-1.5-.3a2.56 2.56 0 0 1-1.08-.92c-.27-.4-.4-.89-.4-1.46 0-.5.1-.9.3-1.21.2-.32.46-.56.79-.74.33-.18.69-.31 1.09-.4.4-.1.8-.16 1.2-.22l1.3-.15c.33-.04.57-.1.72-.19.16-.08.24-.23.24-.45v-.05c0-.56-.16-1-.46-1.3-.3-.31-.77-.47-1.38-.47-.64 0-1.15.14-1.51.42-.36.28-.62.58-.77.9l-1.27-.46a3.06 3.06 0 0 1 2.16-1.86 5.19 5.19 0 0 1 2.3-.08c.37.07.73.2 1.07.4.34.2.63.52.86.93.22.41.34.97.34 1.66V30h-1.34v-1.18h-.07a2.62 2.62 0 0 1-1.3 1.16 3.3 3.3 0 0 1-1.3.22Zm.2-1.2c.53 0 .98-.1 1.34-.31a2.13 2.13 0 0 0 1.12-1.85v-1.23c-.06.07-.18.13-.38.2-.19.04-.4.1-.66.13a29.95 29.95 0 0 1-1.28.17c-.35.05-.68.12-.98.23-.3.1-.54.24-.73.44-.18.2-.27.47-.27.81 0 .47.17.82.52 1.06.35.23.79.35 1.32.35Zm12.43-5.77-1.2.34c-.08-.2-.2-.4-.34-.59a1.6 1.6 0 0 0-.6-.47 2.15 2.15 0 0 0-.95-.2c-.54 0-.98.13-1.34.38-.35.24-.53.55-.53.92 0 .34.12.6.37.8.24.19.62.35 1.13.48l1.3.31c.78.2 1.36.48 1.74.87.39.39.58.89.58 1.5 0 .5-.15.95-.44 1.34-.28.4-.68.7-1.19.93-.51.23-1.1.34-1.78.34-.9 0-1.63-.2-2.21-.58a2.57 2.57 0 0 1-1.11-1.7l1.27-.3c.12.46.35.81.69 1.05.34.23.79.35 1.33.35a2.5 2.5 0 0 0 1.5-.4c.36-.27.55-.59.55-.96 0-.3-.1-.56-.32-.77-.21-.2-.54-.36-.98-.46l-1.45-.34a3.47 3.47 0 0 1-1.76-.88c-.37-.4-.56-.9-.56-1.5 0-.5.14-.94.42-1.32.28-.37.66-.67 1.14-.89a4 4 0 0 1 1.65-.32c.86 0 1.54.19 2.03.57.5.38.85.88 1.06 1.5Zm5.97-1.96v1.14h-4.52v-1.14h4.52Zm-3.2-2.09h1.34v8.32c0 .38.05.66.16.85.11.19.26.31.43.38a2.38 2.38 0 0 0 .93.07l.23-.05.27 1.2a2.71 2.71 0 0 1-1 .16 2.7 2.7 0 0 1-1.11-.24 2.21 2.21 0 0 1-.9-.75 2.14 2.14 0 0 1-.35-1.26v-8.68Zm227.02 8.99a.62.62 0 0 1-.44-.18l-3.33-3.33-3.33 3.33a.63.63 0 0 1-.88 0 .63.63 0 0 1 0-.88l3.33-3.33-3.33-3.33a.63.63 0 0 1 0-.88.63.63 0 0 1 .88 0l3.33 3.33 3.33-3.33a.63.63 0 0 1 .88 0c.24.24.24.64 0 .88l-3.33 3.33 3.33 3.33c.24.24.24.64 0 .88a.62.62 0 0 1-.44.18Z" fill="#fff"/></svg>
